pieces/kosal/pw.svg

<svg xmlns="http://www.w3.org/2000/svg" viewBox="0 0 81 81"><style>.st0{fill:#fff}.st1{fill:#cfcecf}.st2{fill:none}.st3{fill:#010101}</style><path class="st0" d="M29.7 37.8h21.6l-5.1-6h.7c2.6-1.9 4.3-5.1 4.3-8.6 0-6-4.8-10.7-10.7-10.7s-10.7 4.8-10.7 10.7c0 3.5 1.7 6.7 4.3 8.6h.7l-5.1 6zM49.4 60.5l-4.3-20.7h-10l-3.5 20.7L21 69.9h39z"/><path class="st1" d="M40.5 59.7L47.8 71h13.8L51.2 60l-1.4-.9-2.9-20.2h-6.4zM44.4 38h8.1l-5.3-6.5H41zM45 13.3c3.7 5.5 1.1 17.6-10.2 17.6-.2 0 12.1.6 13.1-.3 1.9-1.9 3.1-4.4 3.1-7.3.1-6-6.2-11.2-6-10z"/><path class="st2" d="M31.9 60.6l-10.3 9.1h37.8l-10.2-9-.1-.1L44.9 40h-9.6zM46.1 32H34.9l-4.7 5.9h20.6zM47.5 29.5c1.6-1.7 2.5-4 2.5-6.4 0-5.3-4.2-9.5-9.5-9.5-5.2 0-9.5 4.2-9.5 9.5 0 2.4.9 4.6 2.5 6.4h14z"/><path class="st3" d="M15 72.2h51L51.5 59.4l-4.2-20h8.2l-7.1-8c2.9-2.2 3.6-5.6 3.6-8.1 0-6.4-5-11.4-11.4-11.4-6.3 0-11.4 5.1-11.4 11.4 0 2.5.6 5.9 3.6 8.1l-7.1 8H33l-3.4 20L15 72.2zm16.4-48.9c0-5 4.1-9.1 9.1-9.1 5.1 0 9.1 4 9.1 9.1 0 2.3-.8 4.4-2.4 6.1H33.8c-1.5-1.7-2.4-3.9-2.4-6.1zm3.8 8.4h10.7l4.5 5.6H30.7l4.5-5.6zm.2 7.7H44.8l4.4 21.2v.1l10.2 9H21.6l10.2-9.1 3.6-21.2z"/></svg>

<svg width="81" height="81" viewBox="0 0 81 81" fill="none" xmlns="http://www.w3.org/2000/svg">
<path d="M29.7 37.8H51.3L46.2 31.8H46.9C49.5 29.9 51.2 26.7 51.2 23.2C51.2 17.2 46.4 12.5 40.5 12.5C34.6 12.5 29.8 17.3 29.8 23.2C29.8 26.7 31.5 29.9 34.1 31.8H34.8L29.7 37.8V37.8ZM49.4 60.5L45.1 39.8H35.1L31.6 60.5L21 69.9H60L49.4 60.5Z" fill="white"/>
<path d="M40.5 59.7L47.8 71H61.6L51.2 60L49.8 59.1L46.9 38.9H40.5V59.7ZM44.4 38H52.5L47.2 31.5H41L44.4 38ZM45 13.3C48.7 18.8 46.1 30.9 34.8 30.9C34.6 30.9 46.9 31.5 47.9 30.6C49.8 28.7 51 26.2 51 23.3C51.1 17.3 44.8 12.1 45 13.3Z" fill="#CFCECF"/>
<path d="M15 72.2H66L51.5 59.4L47.3 39.4H55.5L48.4 31.4C51.3 29.2 52 25.8 52 23.3C52 16.9 47 11.9 40.6 11.9C34.3 11.9 29.2 17 29.2 23.3C29.2 25.8 29.8 29.2 32.8 31.4L25.7 39.4H33L29.6 59.4L15 72.2ZM31.4 23.3C31.4 18.3 35.5 14.2 40.5 14.2C45.6 14.2 49.6 18.2 49.6 23.3C49.6 25.6 48.8 27.7 47.2 29.4H33.8C32.3 27.7 31.4 25.5 31.4 23.3ZM35.2 31.7H45.9L50.4 37.3H30.7L35.2 31.7V31.7ZM35.4 39.4H44.8L49.2 60.6V60.7L59.4 69.7H21.6L31.8 60.6L35.4 39.4V39.4Z" fill="#010101"/>
</svg>
